X:1
T:Gud, lat os bære megen frugt
T:Gud, lat os bære megen frugt
T:fra Religiøse korsange (Lars Søraas), nr. 114
T:Richard Norén
T:Joh. Rist ved Brorson. Landst. nr 202
C:Richard Norén
Z:Joh. Rist ved Brorson. Landst. nr 202
%%score [ 1 2 3 4 ]
L:1/8
M:5/4
K:F
V:1 treble nm="Sopran"
V:2 treble nm="Alt"
V:3 treble-8 nm="Tenor"
V:4 bass nm="Bas"
V:1
!mf! D2 | F2 D2 A4 d2 | (^c=B) c2 !breath!d4 d2 | _B2 G2 A4 (FG) |!>(! E4!>)! D4 :|!p! (FG) | %6
w: 1. Gud,|lat os bæ- re|me- * gen frugt, hvor-|til vor daap for- *|plig- ter,|Lat _|
w: at|alt vort liv i|kri- * sten tugt og|tro til him- len _|sig- ter!||
 A2 G2 A4 d2 | (cd) =B2 !breath!A4 B2 |!<(! c2 A2!<)! d4 (ec) | =B4 !breath!A4!mf! d2 | %10
w: mig ved dag- lig|bøn _ og bod med|Je- sus dø saa- *|le- des at|
w: ||||
 c2 =B2 c4 A2 |!>(! (G_B) A2 !breath!F4!>)! (DE) |!<(! F2 G2 A4!<)! (=Bc) | =B4 !breath!A4 d2 | %14
w: jeg i kamp med|kjød _ og blod ei _|træt- tes el- ler _|kje- des, til|
w: ||||
 _B2 G2 A4!>(! (FG) | E4!>)! !fermata!D4 z2 |] %16
w: sa- lig- het be- *|re- des!|
w: ||
V:2
!mf! D2 | D2 D2 D4 F2 | E2 E2 !breath!F4 A2 | D2 E2 (F2 E2) D2 |!>(! (D2 ^C2)!>)! D4 :|!p! D2 | %6
w: 1. Gud,|lat os bæ- re|me- gen frugt, hvor-|til vor daap _ for-|plig- * ter,|Lat|
w: at|alt vort liv i|kri- sten tugt og|tro til him- * len|sig- * ter!||
 E2 E2 E4 A2 | A2 ^G2 !breath!A4 E2 |!<(! E2 E2!<)! F4 E2 | D4 !breath!C4!mf! D2 | E2 F2 E4 F2 | %11
w: mig ved dag- lig|bøn og bod med|Je- sus dø saa-|le- des at|jeg i kamp med|
w: |||||
!>(! F2 E2 !breath!D4!>)! D2 |!<(! D2 E2 F4!<)! A2 | (A2 ^G2) !breath!A4 F2 | %14
w: kjød og blod ei|træt- tes el- ler|kje- * des, til|
w: |||
 D2 E2 (F2 E2)!>(! D2 | (D2 ^C2)!>)! !fermata!A,4 z2 |] %16
w: sa- lig- het _ be-|re- * des!|
w: ||
V:3
!mf! F2 | A2 B2 A4 A2 | A2 A2 !breath!A4 d2 | d2 B2 c4 B2 |!>(! A4!>)! F4 :|!p! A2 | A2 =B2 c4 d2 | %7
w: 1. Gud,|lat os bæ- re|me- gen frugt, hvor-|til vor daap for-|plig- ter,|Lat|mig ved dag- lig|
w: at|alt vort liv i|kri- sten tugt og|tro til him- len|sig- ter!|||
 (ef) d2 !breath!c4 =B2 |!<(! A2 A2!<)! A4 A2 | (A2 ^G2) !breath!A4!mf! A2 | A2 A2 A4 A2 | %11
w: bøn _ og bod med|Je- sus dø saa-|le- * des at|jeg i kamp med|
w: ||||
!>(! d2 c2 !breath!A4!>)! B2 |!<(! A2 c2 c4!<)! (fe) | d4 !breath!c4 A2 | B2 B2 c4!>(! B2 | %15
w: kjød og blod ei|træt- tes el- ler _|kje- des, til|sa- lig- het be-|
w: ||||
 A4!>)! !fermata!F4 z2 |] %16
w: re- des!|
w: |
V:4
!mf! D,2 | D,2 G,2 F,4 D,2 | A,2 A,2 !breath!D,4 F,2 | G,2 G,2 F,4 G,2 |!>(! A,4!>)! D,4 :| %5
w: 1. Gud,|lat os bæ- re|me- gen frugt, hvor-|til vor daap for-|plig- ter,|
w: at|alt vort liv i|kri- sten tugt og|tro til him- len|sig- ter!|
!p! D,2 | C,2 E,2 (A,2 G,2) F,2 | (E,D,) E,2 !breath!A,4 ^G,2 | %8
w: Lat|mig ved dag- * lig|bøn _ og bod med|
w: |||
!<(! A,2 C,2 (C,2!<)! =B,,2) (C,D,) | E,4 !breath!A,4!mf! F,2 | E,2 D,2 C,4 D,2 | %11
w: Je- sus dø _ saa- *|le- des at|jeg i kamp med|
w: |||
!>(! B,,2 C,2 !breath!D,4!>)! G,2 |!<(! D,2 C,2 (F,2 E,2)!<)! (D,C,) | E,4 !breath!A,4 D,2 | %14
w: kjød og blod ei|træt- tes el- * ler _|kje- des, til|
w: |||
 G,2 G,2 F,4!>(! (B,,G,,) | A,,4!>)! !fermata!D,4 z2 |] %16
w: sa- lig- het be- *|re- des!|
w: ||

